packages/kaspersky-hexa-ui-icons/src/iconsSVGs/16/SmartWatch.svg

<svg width="16" height="16" viewBox="0 0 16 16" fill="none" xmlns="http://www.w3.org/2000/svg">
<path fill-rule="evenodd" clip-rule="evenodd" d="M6.99993 1.34998C6.08866 1.34998 5.34993 2.08871 5.34993 2.99998V4.04699C4.59016 4.19468 4.0166 4.86367 4.0166 5.66663V10.3333C4.0166 11.1363 4.59016 11.8053 5.34993 11.9529V13C5.34993 13.9112 6.08866 14.65 6.99993 14.65H8.99993C9.9112 14.65 10.6499 13.9112 10.6499 13V11.9529C11.4097 11.8053 11.9833 11.1363 11.9833 10.3333V7.31663H11.9999C12.3589 7.31663 12.6499 7.02562 12.6499 6.66663C12.6499 6.30765 12.3589 6.01663 11.9999 6.01663H11.9833V5.66663C11.9833 4.86367 11.4097 4.19467 10.6499 4.04699V2.99998C10.6499 2.08871 9.9112 1.34998 8.99993 1.34998H6.99993ZM9.34993 4.01663H6.64993V2.99998C6.64993 2.80668 6.80663 2.64998 6.99993 2.64998H8.99993C9.19323 2.64998 9.34993 2.80668 9.34993 2.99998V4.01663ZM6.64993 13V11.9833H9.34993V13C9.34993 13.1933 9.19323 13.35 8.99993 13.35H6.99993C6.80663 13.35 6.64993 13.1933 6.64993 13ZM5.6666 5.31663C5.4733 5.31663 5.3166 5.47333 5.3166 5.66663V10.3333C5.3166 10.5266 5.4733 10.6833 5.6666 10.6833H10.3333C10.5266 10.6833 10.6833 10.5266 10.6833 10.3333V5.66663C10.6833 5.47333 10.5266 5.31663 10.3333 5.31663H5.6666Z" fill="black"/>
</svg>

<svg xmlns="http://www.w3.org/2000/svg" width="16" height="16" fill="none" viewBox="0 0 16 16"><path fill="#000" fill-rule="evenodd" d="M7 1.35c-.9113 0-1.65.7387-1.65 1.65v1.047c-.7598.1477-1.3333.8167-1.3333 1.6197v4.6666c0 .803.5735 1.472 1.3333 1.6197V13c0 .9113.7387 1.65 1.65 1.65h2c.9113 0 1.65-.7387 1.65-1.65v-1.047c.7598-.1477 1.3333-.8167 1.3333-1.6197V7.3167H12a.65.65 0 1 0 0-1.3h-.0167v-.35c0-.803-.5735-1.472-1.3333-1.6197V3c0-.9113-.7387-1.65-1.65-1.65zm2.35 2.6667h-2.7V3A.35.35 0 0 1 7 2.65h2a.35.35 0 0 1 .35.35zM6.65 13v-1.0167h2.7V13a.35.35 0 0 1-.35.35H7a.35.35 0 0 1-.35-.35m-.9833-7.6833a.35.35 0 0 0-.35.35v4.6666a.35.35 0 0 0 .35.35h4.6666a.35.35 0 0 0 .35-.35V5.6667a.35.35 0 0 0-.35-.35z"/></svg>
